public/img/assets/icons/weather-conditions/small/showers-day.svg

<svg width="24" height="24" viewBox="0 0 24 24" fill="none" xmlns="http://www.w3.org/2000/svg">
<path d="M13.002 6.00999C16.171 6.00999 17.968 8.108 18.23 10.64H18.31C18.7943 10.6393 19.2739 10.7341 19.7216 10.9188C20.1692 11.1036 20.5761 11.3747 20.9189 11.7167C21.2618 12.0587 21.5339 12.4649 21.7197 12.9121C21.9056 13.3593 22.0015 13.8387 22.002 14.323C22.0015 14.8073 21.9056 15.2867 21.7197 15.7339C21.5339 16.1811 21.2618 16.5873 20.9189 16.9293C20.5761 17.2713 20.1692 17.5424 19.7216 17.7272C19.2739 17.9119 18.7943 18.0067 18.31 18.006H17.794L16.149 20.632C16.0539 20.7964 15.9 20.9187 15.7182 20.974C15.5365 21.0294 15.3406 21.0137 15.17 20.9301C14.9994 20.8466 14.8668 20.7015 14.7991 20.524C14.7313 20.3465 14.7334 20.15 14.805 19.974L14.85 19.882L16.062 18.005H13.926L12.281 20.632C12.1859 20.7964 12.032 20.9187 11.8502 20.974C11.6685 21.0294 11.4726 21.0137 11.302 20.9301C11.1314 20.8466 10.9988 20.7015 10.9311 20.524C10.8633 20.3465 10.8654 20.15 10.937 19.974L10.982 19.882L12.194 18.005H10.058L8.41301 20.632C8.31791 20.7964 8.16396 20.9187 7.98224 20.974C7.80052 21.0294 7.60458 21.0137 7.43397 20.9301C7.26336 20.8466 7.1308 20.7015 7.06306 20.524C6.99532 20.3465 6.99744 20.15 7.06901 19.974L7.11401 19.882L8.32601 18.005H7.69501C7.21082 18.0057 6.73125 17.9109 6.28367 17.7263C5.83609 17.5416 5.42927 17.2705 5.08644 16.9286C4.74361 16.5867 4.47147 16.1806 4.28558 15.7336C4.09968 15.2865 4.00366 14.8072 4.00301 14.323C4.00353 13.8387 4.09945 13.3593 4.28529 12.9121C4.47113 12.4649 4.74324 12.0587 5.08609 11.7167C5.42893 11.3747 5.8358 11.1036 6.28344 10.9188C6.73109 10.7341 7.21074 10.6393 7.69501 10.64H7.77501C8.03801 8.091 9.83401 6.00999 13.002 6.00999V6.00999ZM4.36801 10.166C4.43718 10.3335 4.44339 10.5203 4.38549 10.692C4.32758 10.8637 4.20948 11.0086 4.05301 11.1L3.96201 11.146L3.03601 11.529C2.8605 11.6015 2.66402 11.6047 2.48621 11.538C2.30841 11.4713 2.16253 11.3397 2.07801 11.1696C1.9935 10.9996 1.97663 10.8038 2.03082 10.6218C2.08502 10.4398 2.20623 10.2851 2.37001 10.189L2.46201 10.144L3.38801 9.75999C3.47901 9.72229 3.57655 9.70289 3.67506 9.70289C3.77356 9.70289 3.8711 9.7223 3.96211 9.76C4.05311 9.7977 4.1358 9.85296 4.20544 9.92262C4.27509 9.99228 4.33033 10.075 4.36801 10.166V10.166ZM10.855 5.33299L10.683 5.38999C8.90001 6.01999 7.62101 7.396 7.06801 9.213L6.99801 9.463L6.94001 9.70199L6.73401 9.73999C6.13565 9.86591 5.5681 10.1089 5.06401 10.455C4.60568 9.66722 4.43448 8.74497 4.57954 7.84519C4.7246 6.94541 5.17697 6.12369 5.85965 5.51987C6.54234 4.91605 7.41316 4.56745 8.32392 4.53337C9.23469 4.4993 10.1291 4.78187 10.855 5.33299V5.33299ZM2.94101 5.36299L3.04701 5.39899L3.97301 5.78199C4.1488 5.85387 4.29078 5.98976 4.37029 6.16224C4.44979 6.33471 4.4609 6.53093 4.40138 6.71128C4.34186 6.89162 4.21613 7.04268 4.04958 7.13394C3.88302 7.2252 3.68805 7.24988 3.50401 7.20299L3.40001 7.16799L2.47401 6.78399C2.30035 6.71079 2.16061 6.57488 2.0826 6.40332C2.0046 6.23176 1.99404 6.03712 2.05303 5.85813C2.11202 5.67914 2.23624 5.52891 2.40096 5.43735C2.56569 5.34579 2.75885 5.3196 2.94201 5.36399L2.94101 5.36299ZM6.75601 2.37699L6.80201 2.46899L7.18501 3.39499C7.25648 3.57035 7.25898 3.76625 7.19199 3.94337C7.12501 4.12049 6.99351 4.26572 6.82389 4.3499C6.65426 4.43407 6.45908 4.45097 6.27751 4.3972C6.09594 4.34343 5.94144 4.22297 5.84501 4.05999L5.79901 3.96899L5.41601 3.04299C5.3435 2.86748 5.34027 2.671 5.40696 2.4932C5.47366 2.3154 5.60532 2.16952 5.77538 2.085C5.94543 2.00048 6.14121 1.98362 6.32322 2.03781C6.50522 2.092 6.65989 2.21322 6.75601 2.37699V2.37699ZM11.11 2.05899C11.2758 2.12788 11.4114 2.25397 11.4922 2.41436C11.5729 2.57474 11.5934 2.75877 11.55 2.93299L11.515 3.03899L11.132 3.96499C11.059 4.13912 10.923 4.27931 10.7512 4.35757C10.5794 4.43584 10.3844 4.44642 10.2051 4.38721C10.0258 4.328 9.87548 4.20335 9.78407 4.03814C9.69267 3.87294 9.66693 3.67934 9.71201 3.49599L9.74601 3.39099L10.13 2.46499C10.1677 2.37398 10.2229 2.29128 10.2926 2.22162C10.3622 2.15196 10.4449 2.0967 10.5359 2.059C10.6269 2.0213 10.7245 2.00189 10.823 2.00189C10.9215 2.00189 11.019 2.02129 11.11 2.05899V2.05899Z" fill="#3FD5FE"/>
<path d="M13.0024 6.00911C16.1714 6.00911 17.9684 8.10611 18.2304 10.6391H18.3104C18.7946 10.6385 19.2743 10.7332 19.7219 10.9179C20.1696 11.1027 20.5765 11.3738 20.9193 11.7158C21.2621 12.0578 21.5343 12.464 21.7201 12.9112C21.9059 13.3584 22.0019 13.8378 22.0024 14.3221C22.0017 14.8063 21.9057 15.2856 21.7198 15.7327C21.5339 16.1798 21.2618 16.5858 20.9189 16.9277C20.5761 17.2697 20.1693 17.5407 19.7217 17.7254C19.2741 17.9101 18.7946 18.0048 18.3104 18.0041H7.69438C7.2102 18.0048 6.73062 17.9101 6.28305 17.7254C5.83547 17.5407 5.42865 17.2697 5.08581 16.9277C4.74298 16.5858 4.47084 16.1798 4.28495 15.7327C4.09905 15.2856 4.00304 14.8063 4.00238 14.3221C4.00291 13.8378 4.09883 13.3584 4.28466 12.9112C4.4705 12.464 4.74261 12.0578 5.08546 11.7158C5.42831 11.3738 5.83517 11.1027 6.28281 10.9179C6.73046 10.7332 7.21011 10.6385 7.69438 10.6391H7.77438C8.03738 8.08911 9.83438 6.00911 13.0024 6.00911Z" fill="#3FD5FE"/>
<path d="M4.36837 10.1641C4.43783 10.3317 4.44418 10.5188 4.38627 10.6907C4.32835 10.8626 4.21008 11.0077 4.05337 11.0991L3.96237 11.1441L3.03637 11.5281C2.86086 11.6006 2.66438 11.6038 2.48658 11.5371C2.30878 11.4704 2.1629 11.3388 2.07838 11.1687C1.99386 10.9987 1.977 10.8029 2.03119 10.6209C2.08538 10.4389 2.2066 10.2842 2.37037 10.1881L2.46237 10.1421L3.38837 9.7591C3.57204 9.68291 3.77845 9.68277 3.96222 9.75871C4.14599 9.83466 4.29208 9.98047 4.36837 10.1641ZM10.8554 5.3311L10.6834 5.3891C8.89937 6.0191 7.62137 7.3941 7.06837 9.2121L6.99837 9.4621L6.94037 9.7001L6.73438 9.7391C6.13611 9.86477 5.56857 10.1074 5.06437 10.4531C4.60604 9.66533 4.43484 8.74308 4.57991 7.8433C4.72497 6.94351 5.17733 6.1218 5.86002 5.51798C6.5427 4.91416 7.41352 4.56555 8.32429 4.53148C9.23505 4.49741 10.1295 4.77998 10.8554 5.3311ZM2.94037 5.3621L3.04637 5.3971L3.97237 5.7811C4.1465 5.85409 4.28669 5.99007 4.36495 6.16189C4.44322 6.33371 4.4538 6.52873 4.39459 6.708C4.33538 6.88728 4.21073 7.03763 4.04552 7.12904C3.88032 7.22044 3.68672 7.24618 3.50337 7.2011L3.40037 7.1681L2.47437 6.7841C2.30071 6.7109 2.16097 6.57499 2.08297 6.40343C2.00496 6.23187 1.9944 6.03723 2.0534 5.85824C2.11239 5.67924 2.2366 5.52902 2.40133 5.43746C2.56606 5.3459 2.75922 5.31971 2.94237 5.3641L2.94037 5.3621ZM6.75537 2.3761L6.80137 2.4671L7.18437 3.3941C7.25585 3.56946 7.25834 3.76536 7.19136 3.94248C7.12438 4.1196 6.99288 4.26483 6.82325 4.349C6.65363 4.43318 6.45844 4.45008 6.27688 4.39631C6.09531 4.34254 5.9408 4.22207 5.84437 4.0591L5.79837 3.9681L5.41537 3.0411C5.3439 2.86575 5.34141 2.66985 5.40839 2.49273C5.47537 2.31561 5.60687 2.17038 5.7765 2.0862C5.94612 2.00202 6.14131 1.98512 6.32287 2.0389C6.50444 2.09267 6.65895 2.21313 6.75537 2.3761ZM11.1094 2.0571C11.2754 2.12601 11.4112 2.25227 11.4919 2.41287C11.5727 2.57347 11.5931 2.75773 11.5494 2.9321L11.5144 3.0371L11.1314 3.9641C11.0584 4.13823 10.9224 4.27842 10.7506 4.35668C10.5788 4.43495 10.3838 4.44553 10.2045 4.38632C10.0252 4.32711 9.87484 4.20245 9.78344 4.03725C9.69203 3.87205 9.6663 3.67845 9.71138 3.4951L9.74537 3.3891L10.1294 2.4631C10.1671 2.37209 10.2223 2.28939 10.2919 2.21973C10.3616 2.15007 10.4443 2.09481 10.5353 2.05711C10.6263 2.01941 10.7238 2 10.8223 2C10.9208 2 11.0184 2.0194 11.1094 2.0571Z" fill="#FEB800"/>
</svg>

<svg width="24" height="24" fill="none" xmlns="http://www.w3.org/2000/svg"><path d="M13.002 6.01c3.169 0 4.966 2.098 5.228 4.63h.08a3.687 3.687 0 0 1 3.692 3.683 3.685 3.685 0 0 1-3.692 3.683h-.516l-1.645 2.626a.75.75 0 0 1-1.344-.658l.045-.092 1.212-1.877h-2.136l-1.645 2.627a.75.75 0 0 1-1.344-.658l.045-.092 1.212-1.877h-2.136l-1.645 2.627a.75.75 0 0 1-1.344-.658l.045-.092 1.212-1.877h-.631a3.688 3.688 0 0 1-3.692-3.682 3.687 3.687 0 0 1 3.692-3.683h.08c.263-2.549 2.059-4.63 5.227-4.63Zm-8.634 4.156a.75.75 0 0 1-.315.934l-.091.046-.926.383a.75.75 0 0 1-.666-1.34l.092-.045.926-.384a.75.75 0 0 1 .98.406Zm6.487-4.833-.172.057C8.9 6.02 7.621 7.396 7.068 9.213l-.07.25-.058.239-.206.038a4.638 4.638 0 0 0-1.67.715 3.942 3.942 0 0 1 5.791-5.122Zm-7.914.03.106.036.926.383a.75.75 0 0 1-.469 1.421L3.4 7.168l-.926-.384a.75.75 0 0 1 .468-1.42l-.001-.001Zm3.815-2.986.046.092.383.926a.75.75 0 0 1-1.34.665l-.046-.091-.383-.926a.75.75 0 0 1 1.34-.666Zm4.354-.318a.75.75 0 0 1 .44.874l-.035.106-.383.926a.75.75 0 0 1-1.42-.469l.034-.105.384-.926a.75.75 0 0 1 .98-.406Z" fill="#3FD5FE"/><path d="M13.002 6.01c3.17 0 4.966 2.096 5.228 4.63h.08a3.689 3.689 0 0 1 3.692 3.682 3.688 3.688 0 0 1-3.692 3.682H7.694a3.686 3.686 0 0 1-3.41-5.093 3.687 3.687 0 0 1 3.41-2.272h.08c.263-2.55 2.06-4.63 5.228-4.63Z" fill="#3FD5FE"/><path d="M4.368 10.164a.75.75 0 0 1-.315.935l-.09.045-.927.384a.75.75 0 0 1-.666-1.34l.092-.046.926-.383a.75.75 0 0 1 .98.405Zm6.487-4.833-.172.058C8.9 6.02 7.621 7.394 7.068 9.212l-.07.25-.058.238-.206.04a4.64 4.64 0 0 0-1.67.713 3.942 3.942 0 0 1 5.791-5.122Zm-7.915.031.106.035.926.384a.75.75 0 0 1-.469 1.42L3.4 7.168l-.926-.384a.75.75 0 0 1 .468-1.42l-.002-.002Zm3.815-2.986.046.091.383.927a.75.75 0 0 1-1.34.665l-.046-.09-.383-.928a.75.75 0 0 1 1.34-.665Zm4.354-.319a.75.75 0 0 1 .44.875l-.035.105-.383.927a.75.75 0 0 1-1.42-.469l.034-.106.384-.926a.75.75 0 0 1 .98-.406Z" fill="#FEB800"/></svg>
